X: 84
T: Pollonesse #84
M: 3/4
L: 1/16
K: G
Q:120
D2GF G2B2 D2c2|B2AB cBAG F2ED|D2GF G2g2 D2c2|BAGF G4 G,4:|
[G,DBg]4 ABcA B2AG|[G,DBg]4 ABcA B2AG|D2GF G2g2 D2c2|BAGF G4G,4:|
d2c2 Bcde d2g2|{a}g2fe d2c2 B4|[G,DB]4 [G,DB]4 [G,DB]4|{c}B2AB cBAG F2ED|
[G,DB]4 [G,DB]4 [G,DB]4|B2AB cBAG F2ED|D2GF G2g2 D2c2|BAGF G4 G,4:|

